Simply black circles/symbolic/panel/battery-full-symbolic.svg

<?xml version="1.0" encoding="UTF-8" standalone="no"?>
<svg
   xmlns:dc="http://purl.org/dc/elements/1.1/"
   xmlns:cc="http://creativecommons.org/ns#"
   xmlns:rdf="http://www.w3.org/1999/02/22-rdf-syntax-ns#"
   xmlns:svg="http://www.w3.org/2000/svg"
   xmlns="http://www.w3.org/2000/svg"
   xmlns:sodipodi="http://sodipodi.sourceforge.net/DTD/sodipodi-0.dtd"
   xmlns:inkscape="http://www.inkscape.org/namespaces/inkscape"
   width="24"
   height="24"
   version="1.1"
   id="svg10"
   sodipodi:docname="battery-full-symbolic.svg"
   inkscape:version="0.92.3 (2405546, 2018-03-11)">
  <metadata
     id="metadata16">
    <rdf:RDF>
      <cc:Work
         rdf:about="">
        <dc:format>image/svg+xml</dc:format>
        <dc:type
           rdf:resource="http://purl.org/dc/dcmitype/StillImage" />
        <dc:title></dc:title>
      </cc:Work>
    </rdf:RDF>
  </metadata>
  <defs
     id="defs14" />
  <sodipodi:namedview
     pagecolor="#ffffff"
     bordercolor="#666666"
     borderopacity="1"
     objecttolerance="10"
     gridtolerance="10"
     guidetolerance="10"
     inkscape:pageopacity="0"
     inkscape:pageshadow="2"
     inkscape:window-width="1366"
     inkscape:window-height="719"
     id="namedview12"
     showgrid="false"
     showguides="true"
     inkscape:guide-bbox="true"
     inkscape:snap-global="true"
     inkscape:zoom="3.9185501"
     inkscape:cx="-40.953259"
     inkscape:cy="10.979214"
     inkscape:window-x="0"
     inkscape:window-y="25"
     inkscape:window-maximized="1"
     inkscape:current-layer="svg10" />
  <path
     style="opacity:1;fill:#808080;fill-opacity:0.99579827;stroke:none;stroke-width:1.5;stroke-miterlimit:4;stroke-dasharray:none;stroke-opacity:1"
     d="M 12 0.08984375 C 5.352 0.08984375 0 5.3820559 0 11.955078 C 0 18.5281 5.352 23.820312 12 23.820312 C 18.648 23.820312 24 18.5281 24 11.955078 C 24 5.3820559 18.648 0.08984375 12 0.08984375 z M 12 3.0566406 C 16.986 3.0566406 21 7.0253116 21 11.955078 C 21 16.884845 16.986 20.853516 12 20.853516 C 7.014 20.853516 3 16.884845 3 11.955078 C 3 7.0253116 7.014 3.0566406 12 3.0566406 z M 12 5.0332031 C 9.413348 5.0332031 7.2567779 6.4729699 6.0449219 8.5253906 L 17.955078 8.5253906 C 16.743222 6.4729699 14.586652 5.0332031 12 5.0332031 z M 5.2714844 10.285156 C 5.1110274 10.815671 5 11.36568 5 11.955078 C 5 12.611985 5.2055747 13.203479 5.3769531 13.804688 L 18.623047 13.804688 C 18.794425 13.20348 19 12.611985 19 11.955078 C 19 11.36568 18.888973 10.815671 18.728516 10.285156 L 5.2714844 10.285156 z M 6.2519531 15.699219 C 7.4682613 17.597984 9.5399509 18.875 12 18.875 C 14.460049 18.875 16.531739 17.597984 17.748047 15.699219 L 6.2519531 15.699219 z "
     id="rect814" />
</svg>

<svg xmlns="http://www.w3.org/2000/svg" width="24" height="24"><path d="M12 .09C5.352.09 0 5.382 0 11.955S5.352 23.82 12 23.82s12-5.292 12-11.865S18.648.09 12 .09zm0 2.967c4.986 0 9 3.968 9 8.898s-4.014 8.899-9 8.899-9-3.97-9-8.899c0-4.93 4.014-8.898 9-8.898zm0 1.976c-2.587 0-4.743 1.44-5.955 3.492h11.91C16.743 6.473 14.587 5.033 12 5.033zm-6.729 5.252c-.16.53-.271 1.08-.271 1.67 0 .657.206 1.248.377 1.85h13.246c.171-.602.377-1.193.377-1.85 0-.59-.111-1.14-.271-1.67H5.27zm.981 5.414C7.468 17.598 9.54 18.875 12 18.875c2.46 0 4.532-1.277 5.748-3.176H6.252z" fill="gray" fill-opacity=".996"/></svg>
